lg/medusa.svg

<svg viewBox="0 0 512 123" version="1.1" xmlns="http://www.w3.org/2000/svg" preserveAspectRatio="xMidYMid" height="1em" width="1em">
  <defs>
    <linearGradient x1="-66.6972559%" y1="81.8702074%" x2="108.629506%" y2="34.4186803%" id="a">
      <stop stop-color="#592EE1" offset="26.5625%"/>
      <stop stop-color="#B836D9" offset="100%"/>
    </linearGradient>
  </defs>
  <g>
    <path d="M204.815921,88.3037942 L193.246344,88.3037942 L193.246344,58.3057358 C193.246344,54.9612847 192.427366,52.3335403 190.789411,50.4222326 C189.151455,48.4429242 186.898255,47.45327 184.032508,47.45327 C180.755248,47.45327 178.195774,48.5451952 176.352737,50.7293155 C174.57851,52.9134358 173.692072,55.9168036 173.692072,59.739149 L173.692072,88.3037942 L162.019954,88.3037942 L162.019954,38.1363536 L173.48699,38.1363536 L173.48699,42.5389994 C176.626629,38.7847896 180.96033,36.9077522 186.489441,36.9077522 C192.699909,36.9077522 197.376312,39.0918725 200.515951,43.4603829 C204.405757,39.0918725 209.627246,36.9077522 216.180416,36.9077522 C222.568442,36.9077522 227.432734,38.7248173 230.772042,42.3581972 L231.025904,42.6412704 C234.438086,46.3952103 236.144852,51.8897812 236.144852,59.1248483 L236.144852,88.3037942 L224.472734,88.3037942 L224.472734,58.3057358 C224.472734,54.9612847 223.653756,52.3335403 222.015801,50.4222326 C220.377845,48.4429242 218.124645,47.45327 215.258898,47.45327 C211.981638,47.45327 209.422164,48.5793306 207.580476,50.8319913 C205.737439,53.0161116 204.815921,55.9849393 204.815921,59.739149 L204.815921,88.3037942 Z M292.924154,62.6058407 L292.821613,66.7009987 L258.524394,66.7009987 C258.796937,70.4552085 260.12727,73.4240362 262.516741,75.6081565 C264.906213,77.7922768 267.977042,78.8846067 271.730577,78.8846067 C277.123417,78.8846067 281.423387,76.529675 284.631836,71.8202162 L292.515339,79.1916896 C287.19131,86.017133 280.263056,89.4298547 271.730577,89.4298547 C264.154697,89.4298547 258.0805,87.0410575 253.507987,82.2631931 C248.865315,77.4170582 246.544653,71.1717802 246.544653,63.5272242 C246.544653,56.0874802 248.661582,49.7737966 252.892742,44.5864435 C257.192712,39.4674959 262.891825,36.9077522 269.990081,36.9077522 C277.567311,36.9077522 283.266424,39.4334955 287.088769,44.4841725 C290.978576,49.5348495 292.924154,55.5754505 292.924154,62.6058407 Z M270.092622,47.555676 C267.158064,47.555676 264.734862,48.4770595 262.824364,50.3199616 C260.981327,52.1628637 259.752186,54.5176606 259.13829,57.3843522 L280.535599,57.3843522 C280.468138,54.5859312 279.546619,52.2651347 277.772393,50.4222326 C275.996817,48.5111949 273.437343,47.555676 270.092622,47.555676 Z M327.305024,36.9074824 C332.900247,36.9074824 337.575301,38.5458424 341.328836,41.821888 L341.328836,16.5335582 L353.000954,16.5335582 L353.000954,88.3035243 L341.533918,88.3035243 L341.533918,83.7986076 C337.986813,87.5525474 333.2416,89.4295849 327.305024,89.4295849 C320.206768,89.4295849 314.336304,86.9723821 309.692283,82.0579765 C305.121119,77.0754352 302.834188,70.7961568 302.834188,63.2198715 C302.834188,55.6434513 305.121119,49.3641729 309.692283,44.3816316 C314.266145,39.3988205 320.135259,36.9074824 327.305024,36.9074824 Z M337.950384,51.7531051 C335.563611,48.7498722 332.286351,47.2481883 328.121303,47.2481883 C323.960303,47.2481883 320.683044,48.7498722 318.292222,51.7531051 C315.906798,54.7560681 314.711388,58.5785484 314.711388,63.2198715 C314.711388,67.8610597 315.906798,71.68354 318.292222,74.686503 C320.683044,77.6897359 323.960303,79.1914198 328.121303,79.1914198 C332.286351,79.1914198 335.563611,77.6897359 337.950384,74.686503 C340.339856,71.68354 341.533918,67.8610597 341.533918,63.2198715 C341.533918,58.5785484 340.339856,54.7560681 337.950384,51.7531051 Z M365.850943,38.1368933 L377.521711,38.1368933 L377.521711,68.1349517 C377.521711,71.4795377 378.342038,74.1415523 379.978644,76.1208608 C381.619298,78.0318986 383.93861,78.9874175 386.941978,78.9874175 C390.149078,78.9874175 392.676171,77.8613569 394.519208,75.6088311 C396.429706,73.2883045 397.384955,70.216801 397.384955,66.3944555 L397.384955,38.1368933 L409.057073,38.1368933 L409.057073,88.3043338 L397.591386,88.3043338 L397.591386,84.2089059 C394.381587,87.6900332 390.047887,89.4303944 384.586237,89.4303944 C378.854743,89.4303944 374.28223,87.4852213 370.868699,83.5946052 C367.523978,79.6357185 365.850943,74.209688 365.850943,67.3158391 L365.850943,38.1368933 Z M443.645724,69.3630134 L436.990013,67.7250581 C426.819578,65.335991 421.73706,60.0463669 421.73706,51.8556459 C421.73706,47.3507292 423.441127,43.7334654 426.853309,41.0033151 C430.26684,38.2730298 434.6707,36.9077522 440.060841,36.9077522 C447.298067,36.9077522 453.609727,39.7061732 459.002567,45.303285 L451.530576,53.2890592 C448.458398,49.0572249 444.533512,46.9413753 439.754568,46.9413753 C437.707799,46.9413753 436.034764,47.4192696 434.738161,48.3747885 C433.51037,49.2621717 432.895124,50.353962 432.895124,51.650834 C432.895124,53.9716305 434.53308,55.5414501 437.810339,56.3605627 L445.693843,58.2034648 C455.931738,60.5239914 461.052035,65.7454798 461.052035,73.8679302 C461.052035,78.5092532 459.276459,82.2631931 455.725307,85.1297498 C452.245664,87.9967113 447.399259,89.4298547 441.188791,89.4298547 C432.449881,89.4298547 425.524326,86.1878096 420.404029,79.7037193 L427.774828,72.1272991 C431.460902,76.973434 436.239845,79.3965015 442.110309,79.3965015 C447.230606,79.3965015 449.788731,77.6900057 449.788731,74.2772841 C449.788731,72.0931638 447.739263,70.4552085 443.645724,69.3630134 Z M486.20018,89.4298547 C481.353775,89.4298547 477.326348,88.064847 474.120597,85.3345617 C470.910799,82.5362756 469.306574,78.8163361 469.306574,74.175013 C469.306574,68.8509837 471.217072,64.7216903 475.042116,61.7865932 C478.863112,58.8519008 483.914598,57.3843522 490.192528,57.3843522 C493.332167,57.3843522 496.710618,57.9645176 500.329231,59.1248483 L500.329231,55.746262 C500.329231,53.2890592 499.407713,51.3096158 497.564676,49.8079319 C495.721639,48.2381124 493.365897,47.45327 490.50015,47.45327 C485.244931,47.45327 481.286314,49.8764724 478.62295,54.7222026 L470.742146,47.3507292 C472.583834,44.0062781 475.280928,41.4468043 478.828032,39.6720379 C482.446645,37.8292707 486.372881,36.9077522 490.601342,36.9077522 C497.223323,36.9077522 502.444811,38.5461123 506.265807,41.8221578 C510.089502,45.0984732 512,49.7737966 512,55.848533 L512,88.3037942 L500.534313,88.3037942 L500.534313,84.4131781 C496.780778,87.7576292 492.001834,89.4298547 486.20018,89.4298547 Z M480.978692,73.3559005 C480.978692,75.0623962 481.626318,76.4614044 482.92292,77.5537343 C484.289682,78.6455246 486.16645,79.1916896 488.555922,79.1916896 C493.469787,79.1916896 497.396023,77.7582764 500.329231,74.8915848 L500.329231,69.1582015 C496.643157,67.7931938 493.163514,67.1107574 489.886254,67.1107574 C487.155429,67.1107574 484.971039,67.6565176 483.334433,68.7487127 C481.765288,69.8409078 480.978692,71.376727 480.978692,73.3559005 Z" fill="#111111"/>
    <path d="M99.4474979,19.9429068 L71.7097908,3.93737165 C62.6342502,-1.31245722 51.5134242,-1.31245722 42.4377487,3.93737165 L14.5720005,19.9429068 C5.62428515,25.192729 0,34.9241263 0,45.2958643 L0,77.434733 C0,87.9345121 5.62428515,97.5377334 14.5720005,102.787421 L42.3099774,118.92128 C51.3856529,124.170967 62.5060741,124.170967 71.5817497,118.92128 L99.3197266,102.787421 C108.395402,97.5377334 113.891727,87.9345121 113.891727,77.434733 L113.891727,45.2958643 C114.14727,34.9241263 108.523173,25.192729 99.4474979,19.9429068 Z M57.0097492,89.9831706 C41.2872672,89.9831706 28.5048746,77.1787856 28.5048746,61.4293192 C28.5048746,45.6797179 41.2872672,32.8754679 57.0097492,32.8754679 C72.7322311,32.8754679 85.64253,45.6797179 85.64253,61.4293192 C85.64253,77.1787856 72.8600024,89.9831706 57.0097492,89.9831706 Z" fill="url(#a)"/>
  </g>
</svg>

<svg viewBox="0 0 512 123" xmlns="http://www.w3.org/2000/svg" preserveAspectRatio="xMidYMid" height="1em" width="1em">
  <defs>
    <linearGradient x1="-66.697%" y1="81.87%" x2="108.63%" y2="34.419%" id="a">
      <stop stop-color="#592EE1" offset="26.563%"/>
      <stop stop-color="#B836D9" offset="100%"/>
    </linearGradient>
  </defs>
  <path d="M204.816 88.304h-11.57V58.306c0-3.345-.819-5.972-2.457-7.884-1.638-1.98-3.89-2.969-6.756-2.969-3.278 0-5.837 1.092-7.68 3.276-1.774 2.184-2.66 5.188-2.66 9.01v28.565H162.02V38.136h11.467v4.403c3.14-3.754 7.473-5.631 13.002-5.631 6.21 0 10.887 2.184 14.027 6.552 3.89-4.368 9.111-6.552 15.664-6.552 6.388 0 11.253 1.817 14.592 5.45l.254.283c3.412 3.754 5.119 9.249 5.119 16.484v29.179h-11.672V58.306c0-3.345-.82-5.972-2.457-7.884-1.638-1.98-3.891-2.969-6.757-2.969-3.277 0-5.837 1.126-7.679 3.379-1.843 2.184-2.764 5.153-2.764 8.907v28.565Zm88.108-25.698-.102 4.095h-34.298c.273 3.754 1.603 6.723 3.993 8.907 2.39 2.184 5.46 3.277 9.214 3.277 5.392 0 9.692-2.355 12.9-7.065l7.884 7.372c-5.324 6.825-12.252 10.238-20.784 10.238-7.576 0-13.65-2.389-18.223-7.167-4.643-4.846-6.963-11.091-6.963-18.736 0-7.44 2.117-13.753 6.348-18.94 4.3-5.12 9.999-7.68 17.097-7.68 7.577 0 13.276 2.526 17.099 7.577 3.89 5.05 5.835 11.091 5.835 18.122Zm-22.831-15.05c-2.935 0-5.358.921-7.269 2.764-1.843 1.843-3.072 4.198-3.686 7.064h21.398c-.068-2.798-.99-5.119-2.764-6.962-1.775-1.91-4.335-2.866-7.68-2.866Zm57.212-10.649c5.595 0 10.27 1.639 14.024 4.915V16.534H353v71.77h-11.467v-4.505c-3.547 3.754-8.292 5.63-14.229 5.63-7.098 0-12.969-2.457-17.613-7.371-4.57-4.983-6.858-11.262-6.858-18.838 0-7.577 2.287-13.856 6.858-18.838 4.574-4.983 10.443-7.475 17.613-7.475Zm10.645 14.846c-2.386-3.003-5.664-4.505-9.829-4.505-4.16 0-7.438 1.502-9.829 4.505-2.385 3.003-3.58 6.826-3.58 11.467 0 4.641 1.195 8.464 3.58 11.467 2.391 3.003 5.668 4.504 9.83 4.504 4.164 0 7.442-1.501 9.828-4.504 2.39-3.003 3.584-6.826 3.584-11.467 0-4.641-1.194-8.464-3.584-11.467Zm27.9-13.616h11.672v29.998c0 3.345.82 6.007 2.457 7.986 1.64 1.91 3.96 2.866 6.963 2.866 3.207 0 5.734-1.126 7.577-3.378 1.91-2.32 2.866-5.392 2.866-9.215V38.137h11.672v50.167h-11.466V84.21c-3.21 3.481-7.543 5.221-13.005 5.221-5.731 0-10.304-1.945-13.717-5.835-3.345-3.96-5.018-9.385-5.018-16.28V38.138Zm77.796 31.226-6.656-1.638c-10.17-2.389-15.253-7.679-15.253-15.87 0-4.504 1.704-8.122 5.116-10.852 3.414-2.73 7.818-4.095 13.208-4.095 7.237 0 13.549 2.798 18.942 8.395l-7.472 7.986c-3.073-4.232-6.997-6.348-11.776-6.348-2.047 0-3.72.478-5.017 1.434-1.228.887-1.843 1.979-1.843 3.276 0 2.32 1.638 3.89 4.915 4.71l7.884 1.842c10.238 2.321 15.358 7.542 15.358 15.665 0 4.641-1.776 8.395-5.327 11.262-3.48 2.867-8.326 4.3-14.536 4.3-8.74 0-15.665-3.242-20.785-9.726l7.37-7.577c3.687 4.846 8.466 7.27 14.336 7.27 5.12 0 7.679-1.707 7.679-5.12 0-2.184-2.05-3.822-6.143-4.914ZM486.2 89.43c-4.846 0-8.874-1.365-12.08-4.095-3.21-2.799-4.813-6.519-4.813-11.16 0-5.324 1.91-9.453 5.735-12.388 3.821-2.935 8.873-4.403 15.15-4.403 3.14 0 6.519.58 10.137 1.74v-3.378c0-2.457-.921-4.436-2.764-5.938-1.843-1.57-4.2-2.355-7.065-2.355-5.255 0-9.214 2.423-11.877 7.27l-7.88-7.372c1.84-3.345 4.538-5.904 8.085-7.679 3.619-1.843 7.545-2.764 11.773-2.764 6.622 0 11.844 1.638 15.665 4.914C510.09 45.098 512 49.774 512 55.85v32.455h-11.466v-3.89c-3.753 3.344-8.532 5.016-14.334 5.016Zm-5.221-16.074c0 1.706.647 3.105 1.944 4.198 1.367 1.092 3.243 1.638 5.633 1.638 4.914 0 8.84-1.434 11.773-4.3v-5.734c-3.686-1.365-7.165-2.047-10.443-2.047-2.73 0-4.915.546-6.552 1.638-1.569 1.092-2.355 2.628-2.355 4.607Z" fill="#111"/>
  <path d="M99.447 19.943 71.71 3.937a29.171 29.171 0 0 0-29.272 0L14.572 19.943C5.624 25.193 0 34.924 0 45.296v32.139c0 10.5 5.624 20.103 14.572 25.352l27.738 16.134a29.171 29.171 0 0 0 29.272 0l27.738-16.134c9.075-5.25 14.572-14.852 14.572-25.352v-32.14c.255-10.37-5.369-20.102-14.445-25.352ZM57.01 89.983c-15.723 0-28.505-12.804-28.505-28.554 0-15.75 12.782-28.554 28.505-28.554 15.722 0 28.633 12.805 28.633 28.554 0 15.75-12.783 28.554-28.633 28.554Z" fill="url(#a)"/>
</svg>
